X: 11968
T: End Of The World, The
R: jig
M: 6/8
K: Dmajor
DEF GFE|FED E2A|~G3 GEG|EFF F2D|EFA ~F3|FGA E3|A2A AGA|EAA D3:|
~d3 ~F3|GFE ~F3|B2B BGB|FAA AFE|DAA GBB|FGG FAA|A2A AGA|EAA D3:|
DGB FAA|dAd BdB|~G3 GEG|EFF F3|AEG F2E|DED FDG|~A3 AGA|EAA D3:|
GFD ~A3|FED ~B3|A2A AGF|GAA A2F|GAB EFG|ABA D2 z/ (G/|A2)A AGA|EAA D3:|
def gfe|fed e2a|~g3 geg|eff f2d|efa ~f3|fga e3|a2a aga|eaa d3:|
~d'3 ~f3|gfe ~f3|b2b bgb|faa afe|daa gbb|fgg faa|a2a aga|eaa d3:|
dgb faa|d'ad' bd'b|~g3 geg|eff f3|aeg f2e|ded fdg|~a3 aga|eaa d3:|
gfd ~a3|fed ~b3|a2a agf|gaa a2f|gab efg|aba d2 z/ (g/|a2)a aga|eaa d3:|

